static/assets/img/icons/theme/navigation/arrow-from-left.svg

<svg height="24" viewBox="0 0 24 24" width="24" xmlns="http://www.w3.org/2000/svg"><g fill="none" fill-rule="evenodd"><path d="m0 0h24v24h-24z" opacity="0"/><g fill="#000"><rect height="14" opacity=".3" rx="1" transform="matrix(0 -1 1 0 2 26)" width="2" x="13" y="5"/><rect height="18" opacity=".3" rx="1" width="2" x="3" y="3"/><path d="m11.7071032 15.7071045c-.3905243.3905243-1.0236893.3905243-1.4142136 0-.39052428-.3905243-.39052428-1.0236893 0-1.4142136l6-5.99999997c.378579-.37857893.9881654-.39182456 1.3828314-.03004736l6 5.50000003c.407119.3731924.4346219 1.0057598.0614295 1.4128787-.3731924.407119-1.0057597.434622-1.4128787.0614296l-5.2941997-4.8530164z" fill-rule="nonzero" transform="matrix(0 -1 -1 0 28.999996 28.999996)"/></g></g></svg>

<svg width="24px" height="24px" viewBox="0 0 24 24" version="1.1" xmlns="http://www.w3.org/2000/svg" xmlns:xlink="http://www.w3.org/1999/xlink">
    <title>Icon For Arrow-from-left</title>
    <g stroke="none" stroke-width="1" fill="none" fill-rule="evenodd">
        <polygon points="0 0 24 0 24 24 0 24" opacity="0"></polygon>
        <rect fill="#000000" opacity="0.3" transform="translate(14.000000, 12.000000) rotate(-90.000000) translate(-14.000000, -12.000000) " x="13" y="5" width="2" height="14" rx="1"></rect>
        <rect fill="#000000" opacity="0.3" x="3" y="3" width="2" height="18" rx="1"></rect>
        <path d="M11.7071032,15.7071045 C11.3165789,16.0976288 10.6834139,16.0976288 10.2928896,15.7071045 C9.90236532,15.3165802 9.90236532,14.6834152 10.2928896,14.2928909 L16.2928896,8.29289093 C16.6714686,7.914312 17.281055,7.90106637 17.675721,8.26284357 L23.675721,13.7628436 C24.08284,14.136036 24.1103429,14.7686034 23.7371505,15.1757223 C23.3639581,15.5828413 22.7313908,15.6103443 22.3242718,15.2371519 L17.0300721,10.3841355 L11.7071032,15.7071045 Z" fill="#000000" fill-rule="nonzero" transform="translate(16.999999, 11.999997) scale(1, -1) rotate(90.000000) translate(-16.999999, -11.999997) "></path>
    </g>
</svg>
